storage/app/icons/phosphoricons/regular/currency-btc.svg

<svg xmlns="http://www.w3.org/2000/svg" fill="currentColor" viewBox="0 0 256 256"><path d="M178.48 115.7A44 44 0 0 0 152 40.19V24a8 8 0 0 0-16 0v16h-16V24a8 8 0 0 0-16 0v16H72a8 8 0 0 0 0 16h8v136h-8a8 8 0 0 0 0 16h32v16a8 8 0 0 0 16 0v-16h16v16a8 8 0 0 0 16 0v-16h8a48 48 0 0 0 18.48-92.3M176 84a28 28 0 0 1-28 28H96V56h52a28 28 0 0 1 28 28m-16 108H96v-64h64a32 32 0 0 1 0 64"/></svg>

<svg xmlns="http://www.w3.org/2000/svg" viewBox="0 0 256 256" fill="currentColor"><path d="M178.48,115.7A44,44,0,0,0,152,40.19V24a8,8,0,0,0-16,0V40H120V24a8,8,0,0,0-16,0V40H72a8,8,0,0,0,0,16h8V192H72a8,8,0,0,0,0,16h32v16a8,8,0,0,0,16,0V208h16v16a8,8,0,0,0,16,0V208h8a48,48,0,0,0,18.48-92.3ZM176,84a28,28,0,0,1-28,28H96V56h52A28,28,0,0,1,176,84ZM160,192H96V128h64a32,32,0,0,1,0,64Z"/></svg>
